X:29
T:Rhubarb and Ginger
S:On Do Thaobh - Niahm Ni Charra
R:slip jig
M:9/8
L:1/8
K:Emin
E2F GFE c2A | G2A BAG A2F | E2F GFE c2A | B2G c2G FED |
E2F GFE c2A | G2A BAG A2F | E2F GFE c2B | A2d A2G FED ||
G2E E2D B,2F |  G2E EFG A2F | G2EE2D B,2G | FED F2G AGF |
G2EE2D B,2F | GFE G2B c2A | B2d A2d G2c | B2G GFG A2F |]
